www/assets/icons/bookmark_add.svg

<svg width="24" height="24" viewBox="0 0 24 24" xmlns="http://www.w3.org/2000/svg" fill='currentColor'><path d="M20 7H18V9H16V7H14V5H16V3H18V5H20V7ZM18 21L11 18L4 21V5C4 3.9 4.9 3 6 3H13C12.37 3.84 12 4.87 12 6C12 8.76 14.24 11 17 11C17.34 11 17.68 10.97 18 10.9V21Z"/></svg>

<svg xmlns="http://www.w3.org/2000/svg" width="24" height="24" viewBox="0 0 24 24" fill='currentColor'><path d="M20 7h-2v2h-2V7h-2V5h2V3h2v2h2zm-2 14-7-3-7 3V5c0-1.1.9-2 2-2h7a5.002 5.002 0 0 0 5 7.9z"/></svg>
